X:315
T:Tear the calico
T:Rip the calico
R:Reel
O:Ireland
B:O'Neill's 1255- sections in different order...
S:My arrangement from various sources
Z:Transcription, arrangement, chords:Mike Long
M:C|
L:1/8
K:D
"D"d2fd d2fd|"G"edBd "A"egfe|"D"d2fd d2fd|"G"efdB "A"A2A2:|
|:"G"dB~B2 gefd|"G"ed (3(Bcd) "A"egfe|"G"dB~B2 gefd|"G"efdB "A"A2A2:|
|:"D"faaf "G"gfed|"G"edBd "A"(3(efg) fe|\
"D"faaf "G"gfed|[1 "G"efdB "A"A2A2:|[2 "A"edef "G"g2fe|]
